src/standard/transportation/racecar.svg

<svg xmlns="http://www.w3.org/2000/svg" viewBox="0 0 36 36">
  <path d="M10.17 14.62h12.66a.63.63 0 0 0 .56-.89 7.66 7.66 0 0 0-13.78 0 .63.63 0 0 0 .56.89Zm11.57-1.24h-4.62v-2.72a6.41 6.41 0 0 1 4.62 2.72Zm-5.86-2.72v2.72h-4.62a6.41 6.41 0 0 1 4.62-2.72ZM31 27.38H5a.62.62 0 0 0 0 1.24h26a.62.62 0 0 0 0-1.24Z"/>
  <path d="M31 17.59a5.67 5.67 0 0 0-4.47-2.22H8l-.59-2.76a.63.63 0 1 0 .08-1.25h-3a.62.62 0 0 0 0 1.24h1.65l.59 2.76c-.61 0-2-.3-1.84.75l1.06 5a.62.62 0 0 0 .61.49H8c-1.12 4.6 5.85 5.61 6.11.88a3.14 3.14 0 0 0-5.41-2.12H7.07l-.8-3.76H26.5a4.29 4.29 0 0 1 2.42.76H27.5a.62.62 0 0 0 0 1.24h2.65a4.34 4.34 0 0 1 .68 1.76h-2.55a3.12 3.12 0 0 0-4.56 0H15.5a.62.62 0 0 0 0 1.24H23a3.11 3.11 0 1 0 6 0h2.5c1.5-.16.02-3.4-.5-4.01Zm-20 3a1.88 1.88 0 0 1 0 3.75 1.88 1.88 0 0 1 0-3.72Zm15 3.76a1.88 1.88 0 0 1 0-3.75 1.88 1.88 0 0 1 0 3.78Z"/>
</svg>

<svg id="a4ecf573-8017-4d5d-8a77-bbfa789fa1cb" data-name="Icon" xmlns="http://www.w3.org/2000/svg" viewBox="0 0 36 36">
  <g>
    <path d="M10.17,14.62H22.83a.63.63,0,0,0,.56-.89,7.66,7.66,0,0,0-13.78,0A.63.63,0,0,0,10.17,14.62Zm11.57-1.24H17.12V10.66A6.41,6.41,0,0,1,21.74,13.38Zm-5.86-2.72v2.72H11.26A6.41,6.41,0,0,1,15.88,10.66Z"/>
    <path d="M31,27.38H5a.62.62,0,0,0,0,1.24H31A.62.62,0,0,0,31,27.38Z"/>
    <path d="M31,17.59a5.67,5.67,0,0,0-4.47-2.22H8l-.59-2.76a.63.63,0,1,0,.08-1.25h-3a.62.62,0,0,0,0,1.24H6.14l.59,2.76c-.61,0-2-.3-1.84.75l1.06,5a.62.62,0,0,0,.61.49H8c-1.12,4.6,5.85,5.61,6.11.88a3.14,3.14,0,0,0-5.41-2.12H7.07l-.8-3.76H26.5a4.29,4.29,0,0,1,2.42.76H27.5a.62.62,0,0,0,0,1.24h2.65a4.34,4.34,0,0,1,.68,1.76H28.28a3.12,3.12,0,0,0-4.56,0H15.5a.62.62,0,0,0,0,1.24H23a3.11,3.11,0,1,0,6,0H31.5C33,21.44,31.52,18.2,31,17.59Zm-20,3a1.88,1.88,0,0,1,0,3.75A1.88,1.88,0,0,1,11,20.62Zm15,3.76a1.88,1.88,0,0,1,0-3.75A1.88,1.88,0,0,1,26,24.38Z"/>
  </g>
</svg>
